!!!ONB: MCCC : IJH0439_02 : Extracted Monophonic Melody
!!!COM: Haydn, Joseph
!!!OPR: String Quartet in E major
!!!OMV: 2
!!!SCT: Hob.III:25 ; Op.17 No.1
!!!ODT: 1771///
**kern
*thru
*k[f#c#g#d#]
*E:
*clefG
*M3/4
4e
4b
4b
=1
2b
8.g#
16e
=2
4c#
4cc#
4cc#
=3
2cc#
8.a
16f#
=4
2d#
4b
=5
2a
4g#
=6
4e
4gg#
4gg#
=7
2gg#
8.ee
16cc#
=8
4a#
4ff#
4ff#
=9
8ee#
8ff#
8gg#
8ff#
4ff#
=10
4ff#
4ff#
4ff#
=11
8ee#
8ff#
8gg#
8ff#
4ff#
=12
8ff#
8ee
8dd#
8ee
4dd#
=13
8dd#
8cc#
8b
8cc#
4b
=14
4b#
4cc#
4dd#
=15
4ee
4g#
4a#
=16
2.cc#
=17
4b
2r
=18
2.r
=19
2.r
=20
2.r
=21
4b
4bb
4bb
=22
2bb
8aa
8gg#
=23
8gg#
8ff#
8ee#
8ff#
8aa
8ff#
=24
4cc#
4cc#
4ff#
=25
2ee
4dd#
=26
4B
4b
4b
=27
2b
8a
8g#
=28
4f#
4e
4d#
=29
4e
2r
=30
4ee
4ccc#
4ccc#
=31
2ccc#
8.aa
16ff#
=32
4dd#
4bb
4bb
=33
2bb
8.gg#
16ee
=34
4cc#
4aa
4aa
=35
2aa
8.ff#
16dd#
=36
4b
4aa
4aa
=37
8gg#
8bb
8ccc#
8bb
4bb
=38
4bb
4bb
4bb
=39
8aa#
8bb
8ccc#
8bb
4bb
=40
4bb
4bb
4bb
=41
8aa#
8bb
8ccc#
8bb
4bb
=42
4bb
4bb
4bb
=43
8bb
8aa#
8gg#
8ff#
4aa
=44
8aa
8gg#
8ff#
8ee
4ccc#
=45
8ccc#
8bb
8aa
8gg#
8ff#
8ee
=46
4ee#
4ff#
4gg#
=47
4aa
4cc#
4dd#
=48
2.ff#
=49
4ee
2r
=50
2.r
=51
2.cc[
=52
4cc]
4b
4a
=53
2.g[
=54
4g]
4f#
4e
=55
2d
4dd[
=56
4dd]
4cc#
4a#[
=57
4a#]
4b
4dd[
=58
4dd]
4cc#
4a#
=59
4b
2r
=60
2.r
=61
2.ee[
=62
4ee]
4dd
4cc
=63
2.dd[
=64
4dd]
2gg[
=65
4gg]
2ff#[
=66
4ff#]
2ee[
=67
4ee]
4dd#
4gg[
=68
4gg]
4ff#
4ee[
=69
4ee]
4dd#
4gg
=70
4g
4ff#
4ee
=71
4ee
4dd#
4r
=72
2.r
=73
2.r
=74
4ff#
4aa
4gg]
=75
2.ff#[
=76
4ff#]
4aa
4gg
=77
2ff#
4aa[
=78
4aa]
4gg
4ee[
=79
4ee]
2g[
=80
4g]
4a
4f#
=81
4e
2r
==
*-
